miniprogram/assets/figma/membership-tag-general.svg

<svg xmlns="http://www.w3.org/2000/svg" width="14" height="14" viewBox="0 0 14 14" fill="none">
  <g clip-path="url(#clip0_206_485)">
    <path fill-rule="evenodd" clip-rule="evenodd" d="M11.767 0.747656C11.9888 0.765571 12.197 0.804564 12.3939 0.904743C12.6961 1.05843 12.9417 1.30388 13.0957 1.60586C13.1961 1.8027 13.2353 2.0109 13.2534 2.23266C13.2708 2.4453 13.2708 2.70561 13.2708 3.0175L13.2708 5.97604C13.2709 6.42539 13.271 6.72418 13.2022 7.01038C13.1414 7.26348 13.0411 7.50543 12.9051 7.72733C12.7512 7.97825 12.5398 8.18939 12.2218 8.5069L9.37897 11.3472C9.32122 11.4049 9.29234 11.4337 9.25905 11.4445C9.22976 11.4541 9.19822 11.454 9.16894 11.4445C9.13566 11.4337 9.10679 11.4048 9.04906 11.3471L2.65249 4.95054C2.59471 4.89276 2.56582 4.86387 2.555 4.83056C2.54549 4.80126 2.5455 4.7697 2.55502 4.74041C2.56586 4.7071 2.59476 4.67823 2.65256 4.62048L5.49506 1.78053C5.81206 1.46368 6.02285 1.25299 6.27322 1.09957C6.49464 0.963893 6.73601 0.863846 6.98849 0.803089C7.27398 0.73439 7.57201 0.734172 8.02022 0.733844L10.9822 0.731034C11.294 0.730732 11.5543 0.730479 11.767 0.747656ZM9.77081 5.25008C9.20702 5.25008 8.74998 4.79304 8.74998 4.22925C8.74998 3.66546 9.20702 3.20841 9.77081 3.20841C10.3346 3.20841 10.7916 3.66546 10.7916 4.22925C10.7916 4.79304 10.3346 5.25008 9.77081 5.25008Z" fill="#909090"/>
    <path d="M2.03642 5.57191C1.97814 5.51362 1.94899 5.48448 1.91513 5.47373C1.8856 5.46435 1.85311 5.46471 1.82378 5.47474C1.79017 5.48624 1.76203 5.51565 1.70576 5.57448C1.5794 5.70656 1.46723 5.82872 1.36937 5.94388C1.13062 6.22486 0.951525 6.49283 0.850695 6.80267C0.688684 7.30051 0.688435 7.83686 0.849984 8.33486C0.950525 8.64479 1.12937 8.91292 1.36787 9.19413C1.6004 9.4683 1.91395 9.78215 2.30661 10.1752L3.82086 11.6909C4.21355 12.084 4.52712 12.3978 4.80109 12.6306C5.08209 12.8694 5.35006 13.0485 5.65991 13.1494C6.15777 13.3114 6.69414 13.3116 7.19214 13.1501C7.50209 13.0495 7.77023 12.8707 8.05144 12.6321C8.16758 12.5336 8.29083 12.4206 8.42421 12.2932C8.48312 12.2369 8.51257 12.2087 8.52409 12.1751C8.53414 12.1458 8.53451 12.1133 8.52513 12.0837C8.51438 12.0499 8.48522 12.0207 8.42689 11.9624L2.03642 5.57191Z" fill="#909090"/>
  </g>
  <defs>
    <clipPath id="clip0_206_485">
      <rect width="14" height="14" fill="white"/>
    </clipPath>
  </defs>
</svg>

<svg xmlns="http://www.w3.org/2000/svg" width="14" height="14" fill="none" viewBox="0 0 14 14"><g fill="#909090" clip-path="url(#a)"><path fill-rule="evenodd" d="M11.767.748c.222.018.43.057.627.157.302.153.548.399.702.7.1.198.14.406.157.628.018.212.018.473.018.785v2.958c0 .45 0 .748-.069 1.034-.06.253-.16.495-.297.717-.154.251-.365.462-.683.78l-2.843 2.84c-.058.058-.087.087-.12.098q-.045.014-.09 0c-.033-.011-.062-.04-.12-.098L2.652 4.951c-.057-.058-.086-.087-.097-.12a.15.15 0 0 1 0-.09c.01-.034.04-.063.098-.12l2.842-2.84c.317-.317.528-.528.778-.681a2.5 2.5 0 0 1 .715-.297c.286-.069.584-.069 1.032-.07l2.962-.002c.312 0 .572 0 .785.017M9.771 5.25a1.02 1.02 0 1 1 0-2.042 1.02 1.02 0 0 1 0 2.042" clip-rule="evenodd"/><path d="M2.036 5.572c-.058-.058-.087-.088-.12-.098a.15.15 0 0 0-.092 0c-.034.012-.062.042-.118.1a9 9 0 0 0-.337.37c-.238.28-.417.549-.518.859A2.48 2.48 0 0 0 .85 8.335c.1.31.28.578.518.86.232.273.546.587.939.98l1.514 1.516c.393.393.706.707.98.94.281.238.55.418.859.518a2.48 2.48 0 0 0 1.532.001c.31-.1.578-.28.86-.518q.173-.147.372-.339c.06-.056.089-.084.1-.118q.015-.046.001-.091c-.01-.034-.04-.063-.098-.122z"/></g><defs><clipPath id="a"><path fill="#fff" d="M0 0h14v14H0z"/></clipPath></defs></svg>
